X:13022
T:Morrison's Jig
T:Stick Across the Hob; Tom Carmondy's Favourite
T:Whelan's Fancy
R:Jig
C:Trad.
O:Ireland
M:6/8
L:1/8
Q:1/8=240
K:EDor
"Em"E2E BEB|EBE "D"AFD|"Em"E2E BEB|"D"dcB AFD
|"Em"E2E BEB|EBE "D"AFD|"G"G2G "D"FGA|"G"BAG "D"FED:|
||"Em"Bee fee|aee "(D)"fed|"Em"Bee fee|"D"a2g fed
|"Em"Bee fee|aee "D"fef|"Em"gfe "D"d2A|BAG FED||
||"Em"Bee fee|aee "(D)"fed|"Em"Bee fee|"D"faf def
|"G"g2g gfe|"D"def "G"g2d|"(A)"ed^c "D"d2 A|"G"BAG "D"FED|]

